X: 10875
Q: "With spirit."
M: 2/4
L: 1/16
K: A
(cd) |\
e2c2 c2(Bc) | d2B2 B2(ed) | c2A2 (AB)(cA) | B2EE E2(cd) |\
e2e2 e2({e}dc) | d2d2 Hd2(cd) | (ed)(cd) (ed)(cB) | "^Fin."A2A2A2 H|]
(GA) |\


